X:1
T:Jesus Calls Thee
T:William Howard Doane
T:Jesus Calls Thee
T:Public Domain
T:Public Domain
C:William Howard Doane
Z:Public Domain
%%score ( 1 2 ) ( 3 4 )
L:1/8
M:6/8
K:Ab
V:1 treble 
V:2 treble 
V:3 bass 
V:4 bass 
V:1
 [Ec]2 [Fd] [Ec][DB][CA] | [FA]2 [GB] [FA][EG][DF] | [CE]2 [CA] [Ec]2 [EA] | [EB]6 | %4
w: 1.~Je- sus, gra- cious One,|call- eth now to thee,|“Come, O sin- ner,|come!”|
w: 2.~Still He waits for thee,|plead- ing pa- tient- ly,|“Come, O come to|Me!|
w: 3.~Wea- ry, sin- sick soul,|called so gra- cious- ly,|Canst thou dare re-|fuse?|
 [Ec]2 [Fd] [Ec][DB][CA] | [FA]2 [GB] [FA][EG][DF] | [CE]2 [EA] [EA]2 [EG] | [EA]6 | %8
w: Calls so ten- der- ly,|calls so lov- ing- ly,|“Now, O sin- ner,|come!”|
w: Hea- vy la- den one,|I thy grief have borne,|Come and rest in|Me.”|
w: Mer- cy of- fered thee,|free- ly, ten- der- ly,|Wilt thou still a-|buse?|
 [EB]2 [EB] (BA)[EG] | (A2 B) [Ac]3 | [Ec]2 [Ec] (cB)[EA] | (B2 c) [Ed]3 || %12
w: Words of peace * and|ing, * Christ’s|love con- fess- * ing;||
w: Words with love * o’er-|ing, * Life|bliss be- stow- * ing;|the * sweet|
w: Come, for time * is|ing, * Haste,|lamp is dy- * ing;||
"^Refrain" [Ec][Ec][Ec] [Ac]2 [Ac] | [Ad]3 [A=d]3 | [Ae]3 [Ec]2 [CA] | (B3 =B3) | %16
w: ||||
w: of Je- sus, Full, full|of love;|Call- ing ten-|der- *|
w: ||||
 [Ec]2 [Fd] [Ec][DB][CA] | [FA]2 [GB] [FA][EG][DF] | [CE]2 [EA] [EA]2 [EG] | [EA]6 |] %20
w: ||||
w: call- ing lov- ing- ly,|“Come, O sin- ner, come!”|||
w: ||||
V:2
 x6 | x6 | x6 | x6 | x6 | x6 | x6 | x6 | x3 E2 x | E3 x3 | x3 E2 x | E3 x3 || x6 | x6 | x6 | E6 | %16
w: ||||||||bless-|own|||||||
w: ||||||||flow-|and|Hear|voice||||ly,|
w: ||||||||fly-|thy|||||||
 x6 | x6 | x6 | x6 |] %20
w: ||||
w: ||||
w: ||||
V:3
 [A,,A,]2 [A,,A,] [A,,A,][A,,A,][A,,A,] | [D,A,]2 [D,A,] [D,A,][D,A,][D,A,] | %2
 [A,,A,]2 [A,,E,] [A,,A,]2 [C,A,] | [E,G,]6 | [A,,A,]2 [A,,A,] [A,,A,][A,,A,][A,,A,] | %5
 [D,A,]2 [D,A,] [D,A,][D,A,][D,A,] | [E,A,]2 [E,C] [E,C]2 [E,D] | [A,,C]6 | %8
 [E,D]2 [E,D] (DC)[E,B,] | (C2 D) [A,E]3 | A,2 A, ([A,,A,][B,,G,])[C,A,] | (G,2 A,) [E,B,]3 || %12
 A,A,A, [A,E]2 [A,E] | [F,D]3 [_F,=B,]3 | [E,C]3 [E,A,]2 [E,A,] | [E,G,]6 | %16
 [A,,A,]2 [A,,A,] [A,,A,][A,,A,][A,,A,] | [D,A,]2 [D,A,] [D,A,][D,A,][D,A,] | %18
 [E,A,]2 [E,C] [E,C]2 [E,D] | [A,,C]6 |] %20
V:4
 x6 | x6 | x6 | x6 | x6 | x6 | x6 | x6 | x3 E,2 x | A,3 x3 | A,2 A, x3 | E,3 x3 || A,A,A, x3 | x6 | %14
 x6 | x6 | x6 | x6 | x6 | x6 |] %20

